public/icons/icon-tennis.svg

<svg width="25" height="25" viewBox="0 0 25 25" fill="none" xmlns="http://www.w3.org/2000/svg">
<path fill-rule="evenodd" clip-rule="evenodd" d="M4.94163 19.0711C1.03638 15.1658 1.03638 8.83417 4.94163 4.92893C8.84687 1.02369 15.1785 1.02369 19.0838 4.92893C22.989 8.83418 22.989 15.1658 19.0838 19.0711C15.1785 22.9763 8.84687 22.9763 4.94163 19.0711ZM4.07007 11.0407C4.27626 9.32374 5.03819 7.6608 6.35584 6.34315C7.67839 5.0206 9.34879 4.25792 11.0725 4.0551L11.0827 4.11139C11.9041 8.58308 15.4297 12.1086 19.9013 12.93L19.9576 12.9402C19.7548 14.6639 18.9921 16.3343 17.6695 17.6569C16.3519 18.9745 14.689 19.7364 12.972 19.9426C12.9678 19.9191 12.9636 19.8956 12.9593 19.8721C12.1379 15.4004 8.61235 11.8748 4.14066 11.0534C4.11716 11.0491 4.09363 11.0449 4.07007 11.0407ZM4.14066 13.4292V13.0951C7.50542 13.8586 10.1541 16.5073 10.9176 19.8721H10.5837C9.03502 19.5923 7.55293 18.8539 6.35584 17.6569C5.1588 16.4598 4.42041 14.9778 4.14066 13.4292ZM19.9013 10.8884L19.9013 10.666C19.635 9.08301 18.8911 7.5647 17.6695 6.34315C16.448 5.12165 14.9298 4.37773 13.3469 4.11139L13.1244 4.11139C13.8879 7.47615 16.5366 10.1249 19.9013 10.8884Z" fill="#273D63"/>
</svg>

<svg viewBox="0 0 25 25" fill="none" xmlns="http://www.w3.org/2000/svg"><path fill-rule="evenodd" clip-rule="evenodd" d="M4.942 19.071c-3.906-3.905-3.906-10.237 0-14.142 3.905-3.905 10.236-3.905 14.142 0 3.905 3.905 3.905 10.237 0 14.142-3.905 3.905-10.237 3.905-14.142 0zm-.872-8.03a7.966 7.966 0 0 1 2.286-4.698 7.966 7.966 0 0 1 4.716-2.288l.01.056a11.011 11.011 0 0 0 8.82 8.819l.056.01a7.966 7.966 0 0 1-2.288 4.717 7.966 7.966 0 0 1-4.698 2.286A11.011 11.011 0 0 0 4.07 11.04zm.07 2.388v-.334a9.013 9.013 0 0 1 6.778 6.777h-.334a7.964 7.964 0 0 1-4.228-2.215 7.964 7.964 0 0 1-2.215-4.228zm15.761-2.54v-.223a7.963 7.963 0 0 0-2.232-4.323 7.964 7.964 0 0 0-4.322-2.232h-.223a9.013 9.013 0 0 0 6.777 6.777z" fill="#273D63"/></svg>
